webroot/img/new-desgin/why_besa/icon-8.svg

<svg width="104" height="105" viewBox="0 0 104 105" fill="none" xmlns="http://www.w3.org/2000/svg">
<g id="Frame">
<g id="Group">
<path id="Vector" d="M69.5598 56.2791C69.4188 56.2791 69.2802 56.2537 69.1461 56.2029L65.0115 54.6036C63.1072 53.864 61.4963 52.5791 60.3616 50.885C59.7926 50.0319 59.0217 49.3325 58.1173 48.8491C57.213 48.3657 56.2032 48.1132 55.1778 48.114H46.9687C43.5806 48.114 40.8281 45.3568 40.8281 41.9734C40.8281 38.5922 43.5806 35.8281 46.9687 35.8281H60.662C62.7443 35.8281 64.7758 36.2303 66.701 37.0322C68.6172 37.823 70.3579 38.9855 71.8224 40.4527L75.2035 43.8338C76.4839 45.1142 78.1918 45.8214 80.006 45.8214H86.8585C87.4894 45.8214 88.0048 46.3367 88.0048 46.9677C88.0048 47.5986 87.4894 48.114 86.8585 48.114H80.006C77.5794 48.114 75.2983 47.1711 73.5788 45.4516L70.1977 42.0704C67.6508 39.5236 64.2604 38.1207 60.662 38.1207H46.9687C44.8471 38.1207 43.1207 39.8471 43.1207 41.9687C43.1207 44.0903 44.8471 45.8167 46.9687 45.8167H55.1778C58.032 45.8167 60.6805 47.2311 62.2659 49.6C63.1395 50.9058 64.3737 51.8927 65.8389 52.4589L69.9735 54.0582C70.1141 54.1124 70.2426 54.1938 70.3517 54.2978C70.4608 54.4017 70.5484 54.5261 70.6093 54.6639C70.6703 54.8018 70.7035 54.9502 70.707 55.1009C70.7105 55.2515 70.6843 55.4014 70.6299 55.5419C70.4519 56.0041 70.0174 56.2791 69.5598 56.2791ZM64.9029 80.7746H58.8409C58.2099 80.7746 57.6946 80.2592 57.6946 79.6283C57.6946 78.9974 58.2099 78.482 58.8409 78.482H64.9052C66.3196 78.482 67.734 78.311 69.1022 77.9735L76.611 76.12C77.8784 75.8074 79.179 75.6491 80.4844 75.6486H86.8608C87.4917 75.6486 88.0071 76.1639 88.0071 76.7949C88.0071 77.4258 87.4917 77.9412 86.8608 77.9412H80.4844C79.3635 77.9412 78.2496 78.0752 77.1587 78.3433L69.6569 80.1968C68.1011 80.5793 66.505 80.7732 64.9029 80.7746Z" fill="url(#paint0_linear_31_313)"/>
<path id="Vector_2" d="M53.7588 91.8126H9.69048C6.25848 91.8126 3.46666 89.0231 3.46666 85.5888V19.2668C3.46666 15.8348 6.25617 13.043 9.69048 13.043H53.7588C57.1908 13.043 59.9826 15.8325 59.9826 19.2668V36.9722C59.9826 37.6031 59.4672 38.1185 58.8363 38.1185C58.2053 38.1185 57.69 37.6031 57.69 36.9722V19.2599C57.69 17.0943 55.9266 15.331 53.7611 15.331H9.69048C7.52497 15.331 5.76159 17.0943 5.76159 19.2599V85.5818C5.76159 87.7473 7.52497 89.5107 9.69048 89.5107H53.7588C55.9243 89.5107 57.6876 87.7473 57.6876 85.5818V47.9408C57.6876 47.3098 58.203 46.7944 58.834 46.7944C59.4649 46.7944 59.9803 47.3098 59.9803 47.9408V85.5888C59.9872 89.0161 57.1908 91.8126 53.7588 91.8126Z" fill="url(#paint1_linear_31_313)"/>
<path id="Vector_3" d="M49.2868 72.7871H14.211C13.5801 72.7871 13.0647 72.2717 13.0647 71.6408V63.5774C13.0647 62.9464 13.5801 62.431 14.211 62.431H49.2868C49.9177 62.431 50.4331 62.9464 50.4331 63.5774V71.6408C50.4331 72.2787 49.9177 72.7871 49.2868 72.7871ZM15.3573 70.4945H48.1404V64.7237H15.3573V70.4945ZM44.445 80.4508H19.0459C18.4149 80.4508 17.8995 79.9354 17.8995 79.3045C17.8995 78.6735 18.4149 78.1581 19.0459 78.1581H44.4473C45.0782 78.1581 45.5936 78.6735 45.5936 79.3045C45.5936 79.9354 45.0828 80.4508 44.445 80.4508ZM44.445 85.5583H19.0459C18.4149 85.5583 17.8995 85.043 17.8995 84.412C17.8995 83.7811 18.4149 83.2657 19.0459 83.2657H44.4473C45.0782 83.2657 45.5936 83.7811 45.5936 84.412C45.5936 85.043 45.0828 85.5583 44.445 85.5583ZM31.8286 57.0623H31.7454C27.0516 57.0623 22.5541 55.329 19.0782 52.1836C17.1533 50.4454 15.6073 48.3291 14.5369 45.9667C13.4229 43.5146 12.8613 40.8915 12.8613 38.1713C12.8613 35.4511 13.4276 32.8349 14.5369 30.3759C15.6073 28.0135 17.1533 25.8972 19.0782 24.159C22.548 21.0158 27.0636 19.2767 31.7454 19.2803H31.9303C36.7444 19.3242 41.3111 21.1777 44.7963 24.5103C46.458 26.0957 47.803 27.9677 48.8014 30.0709C49.8206 32.2179 50.4192 34.5105 50.5902 36.8863C50.6341 37.5173 50.158 38.065 49.5271 38.1089C48.8962 38.1528 48.3484 37.6767 48.3045 37.0458C48.011 32.8858 46.2037 29.0216 43.2155 26.1674C40.1463 23.2577 36.1319 21.6261 31.898 21.5891H31.7431C27.6224 21.5891 23.6681 23.1121 20.6151 25.8762C17.1438 29.017 15.1493 33.5075 15.1493 38.1875C15.1493 42.8675 17.1438 47.3533 20.6151 50.4988C23.6658 53.2629 27.6201 54.7859 31.7431 54.7859H31.9026C36.1319 54.7466 40.144 53.1173 43.2085 50.1937L43.2155 50.1868C44.3803 49.0774 45.374 47.804 46.1714 46.4104C46.4834 45.8627 47.1836 45.6709 47.7383 45.9829C48.286 46.2949 48.4779 46.9951 48.1659 47.5498C47.2606 49.135 46.1303 50.5807 44.8101 51.8415L44.8032 51.8485C41.3204 55.1741 36.7536 57.0323 31.9372 57.0785C31.8933 57.0623 31.861 57.0623 31.8286 57.0623Z" fill="url(#paint2_linear_31_313)"/>
<path id="Vector_4" d="M31.8286 57.0631C30.9943 57.0631 29.7324 56.7511 28.4659 55.2674C27.6131 54.2667 26.862 52.8731 26.2242 51.1074C24.9692 47.6361 24.2805 43.0439 24.2805 38.179C24.2805 33.3141 24.9692 28.7196 26.2242 25.2507C26.862 23.4919 27.6131 22.0914 28.4659 21.0907C29.7324 19.6069 30.9943 19.2949 31.8286 19.2949C32.6629 19.2949 33.9248 19.6069 35.1913 21.0907C36.0441 22.0914 36.7952 23.485 37.4331 25.2507C38.688 28.7219 39.3767 33.3141 39.3767 38.179C39.3767 43.0439 38.688 47.6384 37.4331 51.1074C36.7952 52.8661 36.0441 54.2667 35.1913 55.2674C33.9248 56.7511 32.6629 57.0631 31.8286 57.0631ZM31.8286 21.5875C29.6377 21.5875 26.5731 27.8992 26.5731 38.179C26.5731 48.4588 29.6307 54.7705 31.8286 54.7705C34.0265 54.7705 37.0841 48.4588 37.0841 38.179C37.0841 27.8992 34.0195 21.5875 31.8286 21.5875Z" fill="url(#paint3_linear_31_313)"/>
<path id="Vector_5" d="M43.7147 39.3251H14.0076C13.3767 39.3251 12.8613 38.8098 12.8613 38.1788C12.8613 37.5479 13.3767 37.0325 14.0076 37.0325H43.7147C44.3456 37.0325 44.861 37.5479 44.861 38.1788C44.861 38.8098 44.3433 39.3251 43.7147 39.3251ZM32.0389 32.2046H31.8101C29.6885 32.1792 27.6455 31.784 25.7342 31.0329C22.8684 29.905 20.4348 27.9938 18.8933 25.6503C18.81 25.525 18.7522 25.3844 18.7235 25.2367C18.6947 25.089 18.6955 24.9371 18.7258 24.7897C18.7561 24.6422 18.8153 24.5023 18.9 24.3779C18.9847 24.2535 19.0932 24.1471 19.2192 24.0649C19.3445 23.9815 19.485 23.9238 19.6328 23.895C19.7805 23.8663 19.9324 23.8671 20.0798 23.8974C20.2272 23.9277 20.3672 23.9869 20.4916 24.0715C20.616 24.1562 20.7224 24.2647 20.8046 24.3907C22.0919 26.3459 24.1349 27.9452 26.5685 28.8997C28.2256 29.5491 29.9959 29.8866 31.8356 29.912H32.032C33.8023 29.912 35.5218 29.6185 37.1326 29.0384C39.5916 28.1532 41.6994 26.6048 43.056 24.6889C43.4258 24.1735 44.1399 24.051 44.6553 24.4138C45.1707 24.7836 45.2932 25.4978 44.9303 26.0131C43.2987 28.3058 40.8096 30.1477 37.9115 31.1923C36.0579 31.8602 34.0843 32.2046 32.0389 32.2046ZM19.8548 52.4823C19.6375 52.4823 19.4226 52.4176 19.2238 52.2905C19.0981 52.2079 18.99 52.1014 18.9055 51.977C18.8211 51.8526 18.762 51.7127 18.7318 51.5654C18.7015 51.4181 18.7006 51.2663 18.7291 51.1187C18.7576 50.971 18.815 50.8305 18.8979 50.705C20.4395 48.3616 22.8731 46.4503 25.7388 45.3225C27.6501 44.5714 29.7001 44.1762 31.8148 44.1507H32.0436C34.0819 44.1507 36.0626 44.4882 37.923 45.163C40.8211 46.2076 43.3102 48.0473 44.9419 50.3422C45.3116 50.8576 45.1845 51.5717 44.6668 51.9415C44.1515 52.3113 43.4373 52.1842 43.0676 51.6665C41.704 49.7482 39.6032 48.209 37.1442 47.317C35.5333 46.7369 33.8185 46.4434 32.0436 46.4434H31.8471C30.0075 46.4688 28.2302 46.8062 26.5732 47.4556C24.1396 48.4101 22.0965 50.0094 20.8092 51.9646C20.7062 52.1239 20.5648 52.2547 20.398 52.3452C20.2313 52.4356 20.0445 52.4828 19.8548 52.4823ZM99.387 85.411H86.8585C86.2276 85.411 85.7122 84.8956 85.7122 84.2647V39.4892C85.7122 38.8583 86.2276 38.3429 86.8585 38.3429H99.387C100.018 38.3429 100.533 38.8583 100.533 39.4892V84.2647C100.533 84.9026 100.018 85.411 99.387 85.411ZM88.0048 83.1184H98.2407V40.6355H88.0048V83.1184Z" fill="url(#paint4_linear_31_313)"/>
<path id="Vector_6" d="M93.1262 80.8398C91.2658 80.8398 89.7566 79.3306 89.7566 77.4702C89.7566 75.6097 91.2658 74.1006 93.1262 74.1006C94.9867 74.1006 96.4958 75.6097 96.4958 77.4702C96.4958 79.3306 94.9797 80.8398 93.1262 80.8398ZM93.1262 76.3932C92.5346 76.3932 92.0492 76.8762 92.0492 77.4702C92.0492 78.0641 92.5323 78.5472 93.1262 78.5472C93.7179 78.5472 94.2032 78.0641 94.2032 77.4702C94.2032 76.8785 93.7179 76.3932 93.1262 76.3932Z" fill="url(#paint5_linear_31_313)"/>
</g>
</g>
<defs>
<linearGradient id="paint0_linear_31_313" x1="45.247" y1="39.9338" x2="85.2224" y2="92.6666" gradientUnits="userSpaceOnUse">
<stop stop-color="#007BC4"/>
<stop offset="1" stop-color="#0B4C97"/>
</linearGradient>
<linearGradient id="paint1_linear_31_313" x1="8.76009" y1="20.2383" x2="81.1341" y2="85.4956" gradientUnits="userSpaceOnUse">
<stop stop-color="#007BC4"/>
<stop offset="1" stop-color="#0B4C97"/>
</linearGradient>
<linearGradient id="paint2_linear_31_313" x1="16.3954" y1="25.3345" x2="74.3394" y2="66.7898" gradientUnits="userSpaceOnUse">
<stop stop-color="#007BC4"/>
<stop offset="1" stop-color="#0B4C97"/>
</linearGradient>
<linearGradient id="paint3_linear_31_313" x1="25.6945" y1="22.7449" x2="53.6819" y2="36.8034" gradientUnits="userSpaceOnUse">
<stop stop-color="#007BC4"/>
<stop offset="1" stop-color="#0B4C97"/>
</linearGradient>
<linearGradient id="paint4_linear_31_313" x1="21.0729" y1="29.4952" x2="69.472" y2="116.151" gradientUnits="userSpaceOnUse">
<stop stop-color="#007BC4"/>
<stop offset="1" stop-color="#0B4C97"/>
</linearGradient>
<linearGradient id="paint5_linear_31_313" x1="90.3878" y1="74.7162" x2="96.454" y2="82.3396" gradientUnits="userSpaceOnUse">
<stop stop-color="#007BC4"/>
<stop offset="1" stop-color="#0B4C97"/>
</linearGradient>
</defs>
</svg>

<svg width="104" height="105" fill="none" xmlns="http://www.w3.org/2000/svg"><path d="M69.56 56.28c-.141 0-.28-.026-.414-.077l-4.135-1.6a9.867 9.867 0 0 1-4.65-3.718 6.225 6.225 0 0 0-5.183-2.771h-8.21a6.148 6.148 0 0 1-6.14-6.14c0-3.382 2.753-6.146 6.14-6.146h13.694c2.082 0 4.114.402 6.039 1.204a15.697 15.697 0 0 1 5.121 3.42l3.382 3.382a6.751 6.751 0 0 0 4.802 1.987h6.853c.63 0 1.146.516 1.146 1.147a1.15 1.15 0 0 1-1.146 1.146h-6.853a9.026 9.026 0 0 1-6.427-2.662l-3.381-3.382a13.404 13.404 0 0 0-9.536-3.95H46.969a3.853 3.853 0 0 0-3.848 3.849 3.853 3.853 0 0 0 3.848 3.848h8.209a8.511 8.511 0 0 1 7.088 3.783 7.547 7.547 0 0 0 3.573 2.859l4.135 1.6a1.145 1.145 0 0 1 .656 1.483 1.145 1.145 0 0 1-1.07.737Zm-4.657 24.495H58.84a1.149 1.149 0 0 1-1.146-1.147c0-.63.515-1.146 1.146-1.146h6.064c1.415 0 2.829-.171 4.197-.508l7.509-1.854a16.201 16.201 0 0 1 3.873-.471h6.377c.63 0 1.146.515 1.146 1.146a1.15 1.15 0 0 1-1.146 1.146h-6.377c-1.12 0-2.234.134-3.325.402l-7.502 1.854a19.985 19.985 0 0 1-4.754.578Z" fill="url(#a)"/><path d="M53.759 91.813H9.69a6.23 6.23 0 0 1-6.223-6.224V19.267a6.23 6.23 0 0 1 6.223-6.224H53.76a6.23 6.23 0 0 1 6.224 6.224v17.705a1.15 1.15 0 0 1-1.147 1.146 1.149 1.149 0 0 1-1.146-1.146V19.26a3.934 3.934 0 0 0-3.929-3.929H9.691a3.934 3.934 0 0 0-3.93 3.929v66.322a3.934 3.934 0 0 0 3.93 3.929h44.068a3.934 3.934 0 0 0 3.929-3.93v-37.64a1.15 1.15 0 0 1 1.146-1.147c.63 0 1.146.516 1.146 1.147v37.648c.007 3.427-2.79 6.224-6.221 6.224Z" fill="url(#b)"/><path d="M49.287 72.787H14.21a1.15 1.15 0 0 1-1.146-1.146v-8.064a1.15 1.15 0 0 1 1.146-1.146h35.076c.63 0 1.146.515 1.146 1.146v8.064c0 .638-.515 1.146-1.146 1.146Zm-33.93-2.293H48.14v-5.77H15.357v5.77Zm29.088 9.957h-25.4a1.15 1.15 0 0 1-1.146-1.146 1.15 1.15 0 0 1 1.147-1.147h25.401a1.147 1.147 0 1 1-.002 2.293Zm0 5.107h-25.4a1.15 1.15 0 0 1-1.146-1.146c0-.63.516-1.146 1.147-1.146h25.401a1.147 1.147 0 1 1-.002 2.293ZM31.829 57.062h-.084a18.842 18.842 0 0 1-12.667-4.878 18.87 18.87 0 0 1-4.541-6.217 18.715 18.715 0 0 1-1.676-7.796c0-2.72.567-5.336 1.676-7.795a18.87 18.87 0 0 1 4.541-6.217 18.846 18.846 0 0 1 12.667-4.879h.185a18.792 18.792 0 0 1 12.866 5.23 18.774 18.774 0 0 1 4.005 5.56 19.004 19.004 0 0 1 1.79 6.816 1.146 1.146 0 0 1-2.287.16c-.293-4.16-2.1-8.024-5.089-10.879a16.609 16.609 0 0 0-11.317-4.578h-.155c-4.12 0-8.075 1.523-11.128 4.287a16.64 16.64 0 0 0-5.466 12.311c0 4.68 1.995 9.166 5.466 12.312a16.545 16.545 0 0 0 11.128 4.287h.16a16.54 16.54 0 0 0 11.306-4.592l.006-.007a16.592 16.592 0 0 0 2.956-3.777 1.152 1.152 0 0 1 1.567-.427c.548.312.74 1.012.428 1.567a18.884 18.884 0 0 1-3.356 4.292l-.007.007a18.825 18.825 0 0 1-12.866 5.23c-.044-.017-.076-.017-.108-.017Z" fill="url(#c)"/><path d="M31.829 57.063c-.835 0-2.097-.312-3.363-1.796-.853-1-1.604-2.394-2.242-4.16-1.255-3.47-1.944-8.063-1.944-12.928s.69-9.46 1.944-12.928c.638-1.76 1.39-3.16 2.242-4.16 1.266-1.484 2.528-1.796 3.363-1.796.834 0 2.096.312 3.362 1.796.853 1 1.604 2.394 2.242 4.16 1.255 3.47 1.944 8.063 1.944 12.928s-.689 9.46-1.944 12.928c-.638 1.76-1.389 3.16-2.242 4.16-1.266 1.484-2.528 1.796-3.362 1.796Zm0-35.476c-2.191 0-5.256 6.312-5.256 16.592 0 10.28 3.058 16.591 5.256 16.591 2.197 0 5.255-6.311 5.255-16.591 0-10.28-3.065-16.592-5.255-16.592Z" fill="url(#d)"/><path d="M43.715 39.325H14.008c-.631 0-1.147-.515-1.147-1.146 0-.631.516-1.147 1.147-1.147h29.707c.63 0 1.146.516 1.146 1.147a1.15 1.15 0 0 1-1.146 1.146Zm-11.676-7.12h-.229a17.103 17.103 0 0 1-6.076-1.172c-2.866-1.128-5.3-3.04-6.84-5.383a1.14 1.14 0 0 1 .325-1.585 1.14 1.14 0 0 1 1.586.326c1.287 1.955 3.33 3.554 5.764 4.509 1.657.65 3.427.987 5.267 1.012h.196c1.77 0 3.49-.293 5.1-.874 2.46-.885 4.567-2.433 5.924-4.35a1.153 1.153 0 0 1 1.6-.274c.515.37.637 1.084.274 1.6-1.631 2.292-4.12 4.134-7.019 5.178a17.264 17.264 0 0 1-5.872 1.013ZM19.855 52.482a1.165 1.165 0 0 1-.95-.505 1.142 1.142 0 0 1-.007-1.272c1.541-2.343 3.975-4.255 6.84-5.383a17.136 17.136 0 0 1 6.077-1.171h.229c2.038 0 4.019.337 5.879 1.012 2.898 1.045 5.387 2.884 7.019 5.18.37.515.242 1.229-.275 1.598-.516.37-1.23.243-1.6-.275-1.363-1.918-3.464-3.457-5.923-4.349a15.002 15.002 0 0 0-5.1-.874h-.197c-1.84.026-3.617.363-5.274 1.013-2.433.954-4.477 2.553-5.764 4.509a1.133 1.133 0 0 1-.954.517Zm79.532 32.929H86.859a1.15 1.15 0 0 1-1.147-1.146V39.489c0-.63.516-1.146 1.147-1.146h12.528c.631 0 1.146.515 1.146 1.146v44.776c0 .638-.515 1.146-1.146 1.146Zm-11.382-2.293H98.24V40.636H88.005v42.482Z" fill="url(#e)"/><path d="M93.126 80.84a3.37 3.37 0 1 1 3.37-3.37c0 1.86-1.516 3.37-3.37 3.37Zm0-4.447a1.078 1.078 0 1 0 1.077 1.077c0-.591-.485-1.077-1.077-1.077Z" fill="url(#f)"/><defs><linearGradient id="a" x1="45.247" y1="39.934" x2="85.222" y2="92.667" gradientUnits="userSpaceOnUse"><stop stop-color="#007BC4"/><stop offset="1" stop-color="#0B4C97"/></linearGradient><linearGradient id="b" x1="8.76" y1="20.238" x2="81.134" y2="85.496" gradientUnits="userSpaceOnUse"><stop stop-color="#007BC4"/><stop offset="1" stop-color="#0B4C97"/></linearGradient><linearGradient id="c" x1="16.395" y1="25.334" x2="74.339" y2="66.79" gradientUnits="userSpaceOnUse"><stop stop-color="#007BC4"/><stop offset="1" stop-color="#0B4C97"/></linearGradient><linearGradient id="d" x1="25.695" y1="22.745" x2="53.682" y2="36.803" gradientUnits="userSpaceOnUse"><stop stop-color="#007BC4"/><stop offset="1" stop-color="#0B4C97"/></linearGradient><linearGradient id="e" x1="21.073" y1="29.495" x2="69.472" y2="116.151" gradientUnits="userSpaceOnUse"><stop stop-color="#007BC4"/><stop offset="1" stop-color="#0B4C97"/></linearGradient><linearGradient id="f" x1="90.388" y1="74.716" x2="96.454" y2="82.34" gradientUnits="userSpaceOnUse"><stop stop-color="#007BC4"/><stop offset="1" stop-color="#0B4C97"/></linearGradient></defs></svg>
